img/icon-cool.svg

<svg width="95" height="88" viewBox="0 0 95 88" fill="none" xmlns="http://www.w3.org/2000/svg">
	<path d="M87.9724 22.2661C87.4007 23.9939 86.8356 25.725 86.2773 27.4593C90.9301 36.4974 92.1654 46.8692 89.7625 56.7211C87.3596 66.573 81.475 75.263 73.1606 81.2379C74.3532 81.9502 75.4227 82.8452 76.3288 83.8892C85.6802 76.8609 92.0482 66.6671 94.1993 55.2825C96.3504 43.8979 94.1315 32.1328 87.9724 22.2661Z" fill="#826550" />
	<path d="M9.60485 69.8487H10.9569C5.83003 61.9959 3.45519 52.7077 4.19489 43.4022C4.9346 34.0966 8.74822 25.2849 15.0536 18.3121C21.3589 11.3394 29.8096 6.58881 39.1155 4.78551C48.4214 2.98221 58.0713 4.2253 66.5921 8.32501C67.3134 7.17616 68.1373 6.09286 69.054 5.08796C59.9381 0.520846 49.5676 -1.02837 39.4851 0.670759C29.4026 2.36989 20.1468 7.22657 13.0944 14.5184C6.04198 21.8103 1.56976 31.1477 0.342934 41.1419C-0.88389 51.136 1.20023 61.2529 6.28531 69.9877C7.42545 69.8785 8.55551 69.8487 9.60485 69.8487Z" fill="#826550" />
	<path d="M53.9294 81.4266C54.3733 75.3298 53.0516 67.5252 54.5953 62.4909C59.166 62.4115 64.2412 62.8384 67.8634 61.8355C76.1169 47.1 79.9712 28.075 86.4489 11.5521V8.94064C85.7627 5.96177 82.6652 5.2667 79.8098 4.37303H79.1539C68.4587 7.77888 67.0461 20.3597 64.554 31.7985C48.6121 27.6877 31.9639 31.739 31.3686 46.822C26.808 46.8915 23.2967 48.0334 21.42 50.7343C20.8449 57.4367 23.0041 61.4086 28.0591 62.5604C27.0991 67.381 24.5275 71.7468 20.7541 74.9624C14.2966 75.5781 4.98372 73.3737 1.51282 76.9484V79.5599C4.69112 83.3927 14.4782 80.7315 20.7541 81.5458C27.4033 77.564 29.2598 68.965 32.7004 61.8753C37.4124 62.2427 43.658 61.1008 47.3004 62.5306V82.1217C39.4001 82.6182 31.7116 83.3232 28.0591 88H73.1808C69.8915 82.7473 60.5887 83.4125 53.9294 81.4266ZM38.0077 46.8617C38.6938 35.2342 53.4754 35.254 63.888 38.3719C63.9889 43.0587 63.3634 48.4604 65.2098 51.4293C58.1066 50.5853 47.9865 47.0603 38.0077 46.8617Z" fill="#826550" />
</svg>

<svg width="95" height="88" fill="none" xmlns="http://www.w3.org/2000/svg"><path d="M87.972 22.266a674.162 674.162 0 00-1.695 5.193 42.088 42.088 0 013.486 29.262c-2.403 9.852-8.288 18.542-16.602 24.517a13.063 13.063 0 013.168 2.651c9.351-7.028 15.72-17.222 17.87-28.606 2.151-11.385-.067-23.15-6.227-33.017zM9.605 69.849h1.352a42.231 42.231 0 01-6.762-26.447c.74-9.305 4.553-18.117 10.859-25.09C21.359 11.34 29.81 6.59 39.115 4.786a44.078 44.078 0 0127.477 3.539 22.764 22.764 0 012.462-3.237A48.181 48.181 0 0039.485.671C29.403 2.37 20.147 7.227 13.095 14.518 6.041 21.81 1.57 31.148.342 41.142a46.13 46.13 0 005.942 28.846c1.14-.11 2.27-.14 3.32-.14z" fill="#826550"/><path d="M53.93 81.427c.443-6.097-.878-13.902.665-18.936 4.571-.08 9.646.347 13.268-.655C76.117 47.1 79.971 28.075 86.45 11.552V8.941c-.686-2.98-3.784-3.674-6.64-4.568h-.655C68.46 7.779 67.047 20.36 64.555 31.798c-15.942-4.11-32.59-.059-33.185 15.024-4.561.07-8.072 1.211-9.949 3.912-.575 6.703 1.584 10.675 6.64 11.826a21.93 21.93 0 01-7.306 12.402c-6.457.616-15.77-1.588-19.241 1.986v2.612c3.178 3.833 12.965 1.171 19.241 1.986 6.65-3.982 8.506-12.581 11.946-19.67 4.712.367 10.958-.775 14.6.655v19.59c-7.9.497-15.588 1.202-19.24 5.879h45.12c-3.289-5.253-12.591-4.588-19.25-6.573zM38.007 46.862c.686-11.628 15.467-11.608 25.88-8.49.1 4.687-.525 10.088 1.322 13.057-7.103-.844-17.223-4.369-27.202-4.567z" fill="#826550"/></svg>
